icons/outline/temperature-snow.svg

<!--
tags: [cold, winter, climate, chills, freeze, degree, weather, forecast, frost, ice]
version: "2.47"
unicode: "fda3"
-->
<svg
  xmlns="http://www.w3.org/2000/svg"
  width="24"
  height="24"
  viewBox="0 0 24 24"
  fill="none"
  stroke="currentColor"
  stroke-width="2"
  stroke-linecap="round"
  stroke-linejoin="round"
>
  <path d="M4 13.5a4 4 0 1 0 4 0v-8.5a2 2 0 1 0 -4 0v8.5m0 -4.5h4m6.75 -5l1 2h2.25m-1 -2l-3 5l2 3m4.25 -2l-1.25 2l1.25 2m1.75 -2h-6l-2 3m4 3h-2.25l-1 2m2.25 0l-3 -5h-1m-1 -6l2.088 .008" />
</svg>

<!--
tags: [cold, winter, climate, chills, freeze, degree, weather, forecast, frost, ice]
version: "2.47"
unicode: "fda3"
-->
<svg
  xmlns="http://www.w3.org/2000/svg"
  width="24"
  height="24"
  viewBox="0 0 24 24"
  fill="none"
  stroke="currentColor"
  stroke-width="2"
  stroke-linecap="round"
  stroke-linejoin="round"
>
    <path d="M4 13.5a4 4 0 1 0 4 0v-8.5a2 2 0 1 0 -4 0v8.5M4 9h4M14.75 4l1 2h2.25M17 4l-3 5l2 3M20.25 10l-1.25 2l1.25 2M22 12h-6l-2 3M18 18h-2.25l-1 2M17 20l-3 -5h-1M12 9l2.088 .008" />
</svg>
